data/cards/self-care/meditating.svg

<svg xmlns="http://www.w3.org/2000/svg" width="512" height="512" fill="none"><path fill="#6A95D6" d="M46.041 369.531c-18.167-1.47-31.701-17.39-30.231-35.556 1.47-18.166 17.357-31.707 35.557-30.232 38.592 3.118 70.776-17.08 104.331-65.506 10.382-14.982 30.94-18.71 45.923-8.33 14.981 10.381 18.709 30.941 8.329 45.922-40.696 58.729-92.703 99.464-163.909 93.702Z"/><path fill="#FFD3BD" d="M79.687 301.51c-9.112 2.303-18.508 3.026-28.321 2.233-18.199-1.475-34.087 12.066-35.557 30.232-1.47 18.167 12.065 34.086 30.231 35.556 14.72 1.191 28.616.39 41.765-2.141l-8.118-65.88Z"/><path fill="#6A95D6" d="M465.959 369.531c18.167-1.47 31.701-17.39 30.231-35.556-1.47-18.166-17.357-31.707-35.557-30.232-38.592 3.118-70.776-17.08-104.331-65.506-10.382-14.982-30.94-18.71-45.923-8.33-14.981 10.381-18.709 30.941-8.329 45.922 40.696 58.729 92.703 99.464 163.909 93.702Z"/><path fill="#FFD3BD" d="M432.313 301.51c9.112 2.303 18.509 3.026 28.321 2.233 18.199-1.475 34.087 12.066 35.557 30.232 1.47 18.167-12.065 34.086-30.231 35.556-14.72 1.191-28.616.39-41.765-2.141l8.118-65.88Z"/><path fill="#8DAEE1" d="M254.405 458.906c64.254 0 116.342-55.121 116.342-123.115 0-67.995-52.088-123.115-116.342-123.115-64.254 0-116.342 55.12-116.342 123.115 0 67.994 52.088 123.115 116.342 123.115Z"/><path fill="#7ACDF9" d="M169.53 490.274c-6.234-17.127 2.598-36.065 19.725-42.298l150.18-54.662c17.128-6.233 36.064 2.598 42.299 19.724 6.234 17.127-2.598 36.065-19.725 42.298l-150.18 54.662c-17.193 6.257-36.087-2.659-42.299-19.724Z"/><path fill="#FFD3BD" d="m232.849 432.109-43.594 15.867c-17.127 6.233-25.959 25.171-19.725 42.298 6.212 17.065 25.106 25.981 42.299 19.724l45.766-16.657-24.746-61.232Z"/><path fill="#A2DDFD" d="M342.47 490.274c6.234-17.127-2.598-36.065-19.725-42.298l-150.18-54.662c-17.128-6.233-36.064 2.598-42.299 19.724-6.234 17.127 2.598 36.065 19.725 42.298l150.18 54.662c17.193 6.257 36.087-2.659 42.299-19.724Z"/><path fill="#FFD3BD" d="m279.151 432.109 43.594 15.867c17.127 6.233 25.959 25.171 19.725 42.298-6.212 17.065-25.106 25.981-42.299 19.724l-45.766-16.657 24.746-61.232ZM101.769 192.818c24.496-5.791 39.66-30.343 33.869-54.839-5.79-24.496-30.342-39.66-54.839-33.87-24.496 5.791-39.66 30.343-33.87 54.839 5.791 24.496 30.343 39.66 54.84 33.87Z"/><path fill="#FFBE9D" d="M465.151 159.148c5.79-24.496-9.374-49.048-33.87-54.839-24.496-5.79-49.048 9.374-54.838 33.87-5.791 24.496 9.373 49.048 33.869 54.839 24.496 5.79 49.049-9.374 54.839-33.87Z"/><path fill="#FFD3BD" d="M256 297.046c90.311 0 163.522-66.496 163.522-148.523S346.311 0 256 0C165.689 0 92.478 66.496 92.478 148.523S165.689 297.046 256 297.046Z"/><path fill="#FFBE9D" d="M324.176 283.552c-177.666-4.31-186.95-192.645-143.764-266.755-52.258 24.789-87.934 74.47-87.934 131.726 0 82.027 73.211 148.523 163.522 148.523 24.334 0 47.423-4.835 68.176-13.494Z"/><path fill="#E7889D" d="M171.691 193.987c17.181 0 31.109-11.091 31.109-24.773 0-13.681-13.928-24.773-31.109-24.773s-31.109 11.092-31.109 24.773c0 13.682 13.928 24.773 31.109 24.773Zm168.619 0c17.181 0 31.109-11.091 31.109-24.773 0-13.681-13.928-24.773-31.109-24.773s-31.109 11.092-31.109 24.773c0 13.682 13.928 24.773 31.109 24.773Z"/><path fill="#4E5660" d="M189.82 151.684a28.792 28.792 0 0 1-21.705-9.885 7.5 7.5 0 0 1 .727-10.581 7.5 7.5 0 0 1 10.582.726 13.79 13.79 0 0 0 10.396 4.74c3.982 0 7.771-1.728 10.396-4.74a7.5 7.5 0 0 1 11.309 9.854 28.78 28.78 0 0 1-21.705 9.886Zm132.36 0a28.786 28.786 0 0 1-21.705-9.885 7.5 7.5 0 1 1 11.308-9.854 13.792 13.792 0 0 0 10.396 4.74c3.981 0 7.772-1.728 10.397-4.74a7.5 7.5 0 0 1 11.309 9.855 28.795 28.795 0 0 1-21.705 9.884ZM256 172.016c6.854 0 12.41-5.926 12.41-13.235 0-7.31-5.556-13.235-12.41-13.235s-12.41 5.925-12.41 13.235c0 7.309 5.556 13.235 12.41 13.235Zm154.881-71.255C388.984 42.165 327.914 0 256 0S123.016 42.165 101.119 100.761C156.448 103.523 238.105 84.367 256 53.805c17.895 30.562 99.552 49.718 154.881 46.956Z"/><path fill="#383C43" d="M159.129 97.059c1.599-31.232 9.482-60.015 21.286-80.268-37.01 17.555-65.703 47.594-79.296 83.97 17.635.88 37.944-.469 58.01-3.702Z"/></svg>

<svg width="512" height="512" viewBox="0 0 512 512" fill="none" xmlns="http://www.w3.org/2000/svg">
<path d="M46.041 369.531C27.874 368.061 14.34 352.141 15.81 333.975C17.28 315.809 33.167 302.268 51.367 303.743C89.959 306.861 122.143 286.663 155.698 238.237C166.08 223.255 186.638 219.527 201.621 229.907C216.602 240.288 220.33 260.848 209.95 275.829C169.254 334.558 117.247 375.293 46.041 369.531Z" fill="#6A95D6"/>
<path d="M79.687 301.51C70.575 303.813 61.179 304.536 51.366 303.743C33.167 302.268 17.279 315.809 15.809 333.975C14.339 352.142 27.874 368.061 46.04 369.531C60.76 370.722 74.656 369.921 87.805 367.39L79.687 301.51Z" fill="#FFD3BD"/>
<path d="M465.959 369.531C484.126 368.061 497.66 352.141 496.19 333.975C494.72 315.809 478.833 302.268 460.633 303.743C422.041 306.861 389.857 286.663 356.302 238.237C345.92 223.255 325.362 219.527 310.379 229.907C295.398 240.288 291.67 260.848 302.05 275.829C342.746 334.558 394.753 375.293 465.959 369.531Z" fill="#6A95D6"/>
<path d="M432.313 301.51C441.425 303.813 450.822 304.536 460.634 303.743C478.833 302.268 494.721 315.809 496.191 333.975C497.661 352.142 484.126 368.061 465.96 369.531C451.24 370.722 437.344 369.921 424.195 367.39L432.313 301.51Z" fill="#FFD3BD"/>
<path d="M254.405 458.906C318.659 458.906 370.747 403.785 370.747 335.791C370.747 267.796 318.659 212.676 254.405 212.676C190.151 212.676 138.063 267.796 138.063 335.791C138.063 403.785 190.151 458.906 254.405 458.906Z" fill="#8DAEE1"/>
<path d="M169.53 490.274C163.296 473.147 172.128 454.209 189.255 447.976L339.435 393.314C356.563 387.081 375.499 395.912 381.734 413.038C387.968 430.165 379.136 449.103 362.009 455.336L211.829 509.998C194.636 516.255 175.742 507.339 169.53 490.274Z" fill="#7ACDF9"/>
<path d="M232.849 432.109L189.255 447.976C172.128 454.209 163.296 473.147 169.53 490.274C175.742 507.339 194.636 516.255 211.829 509.998L257.595 493.341L232.849 432.109Z" fill="#FFD3BD"/>
<path d="M342.47 490.274C348.704 473.147 339.872 454.209 322.745 447.976L172.565 393.314C155.437 387.081 136.501 395.912 130.266 413.038C124.032 430.165 132.864 449.103 149.991 455.336L300.171 509.998C317.364 516.255 336.258 507.339 342.47 490.274Z" fill="#A2DDFD"/>
<path d="M279.151 432.109L322.745 447.976C339.872 454.209 348.704 473.147 342.47 490.274C336.258 507.339 317.364 516.255 300.171 509.998L254.405 493.341L279.151 432.109Z" fill="#FFD3BD"/>
<path d="M101.769 192.818C126.265 187.027 141.429 162.475 135.638 137.979C129.848 113.483 105.296 98.3187 80.7995 104.109C56.3034 109.9 41.1394 134.452 46.9299 158.948C52.7203 183.444 77.2725 198.608 101.769 192.818Z" fill="#FFD3BD"/>
<path d="M465.151 159.148C470.941 134.652 455.777 110.1 431.281 104.309C406.785 98.5189 382.233 113.683 376.443 138.179C370.652 162.675 385.816 187.227 410.312 193.018C434.808 198.808 459.361 183.644 465.151 159.148Z" fill="#FFBE9D"/>
<path d="M256 297.046C346.311 297.046 419.522 230.55 419.522 148.523C419.522 66.496 346.311 0 256 0C165.689 0 92.478 66.496 92.478 148.523C92.478 230.55 165.689 297.046 256 297.046Z" fill="#FFD3BD"/>
<path d="M324.176 283.552C146.51 279.242 137.226 90.9069 180.412 16.7969C128.154 41.5859 92.478 91.2669 92.478 148.523C92.478 230.55 165.689 297.046 256 297.046C280.334 297.046 303.423 292.211 324.176 283.552Z" fill="#FFBE9D"/>
<path d="M171.691 193.987C188.872 193.987 202.8 182.896 202.8 169.214C202.8 155.533 188.872 144.441 171.691 144.441C154.51 144.441 140.582 155.533 140.582 169.214C140.582 182.896 154.51 193.987 171.691 193.987Z" fill="#E7889D"/>
<path d="M340.31 193.987C357.491 193.987 371.419 182.896 371.419 169.214C371.419 155.533 357.491 144.441 340.31 144.441C323.129 144.441 309.201 155.533 309.201 169.214C309.201 182.896 323.129 193.987 340.31 193.987Z" fill="#E7889D"/>
<path d="M189.82 151.684C181.502 151.684 173.591 148.081 168.115 141.799C165.394 138.677 165.719 133.939 168.842 131.218C171.964 128.496 176.701 128.821 179.424 131.944C182.049 134.957 185.839 136.684 189.82 136.684C193.802 136.684 197.591 134.956 200.216 131.944C202.937 128.82 207.675 128.495 210.797 131.216C213.92 133.937 214.246 138.675 211.525 141.798C206.052 148.081 198.141 151.684 189.82 151.684Z" fill="#4E5660"/>
<path d="M322.18 151.684C313.86 151.684 305.949 148.081 300.475 141.799C297.753 138.676 298.079 133.938 301.202 131.217C304.324 128.497 309.062 128.822 311.783 131.945C314.408 134.957 318.197 136.685 322.179 136.685C326.16 136.685 329.951 134.957 332.576 131.945C335.298 128.823 340.036 128.497 343.158 131.219C346.281 133.94 346.605 138.678 343.885 141.8C338.409 148.081 330.498 151.684 322.18 151.684Z" fill="#4E5660"/>
<path d="M256 172.016C262.854 172.016 268.41 166.09 268.41 158.781C268.41 151.471 262.854 145.546 256 145.546C249.146 145.546 243.59 151.471 243.59 158.781C243.59 166.09 249.146 172.016 256 172.016Z" fill="#4E5660"/>
<path d="M410.881 100.761C388.984 42.165 327.914 0 256 0C184.086 0 123.016 42.165 101.119 100.761C156.448 103.523 238.105 84.367 256 53.805C273.895 84.367 355.552 103.523 410.881 100.761Z" fill="#4E5660"/>
<path d="M159.129 97.059C160.728 65.827 168.611 37.044 180.415 16.791C143.405 34.346 114.712 64.385 101.119 100.761C118.754 101.641 139.063 100.292 159.129 97.059Z" fill="#383C43"/>
</svg>
